Suru++-Ubuntu/apps/symbolic/insomnia-symbolic.svg

<svg width="16" height="16" style="isolation:isolate" viewBox="0 0 16 16" xmlns="http://www.w3.org/2000/svg">
 <defs>
  <clipPath id="_clipPath_uitRY6gLjlnyCLSXvH1r7Esqm1q0MWUr">
   <rect width="16" height="16"/>
  </clipPath>
 </defs>
 <g clip-path="url(#_clipPath_uitRY6gLjlnyCLSXvH1r7Esqm1q0MWUr)">
  <rect width="16" height="16" fill-opacity="0" style="fill:rgb(0,0,0)"/>
  <path d="m0 8c0-4.415 3.585-8 8-8s8 3.585 8 8-3.585 8-8 8-8-3.585-8-8zm1 0c0-1.86 0.74-3.64 2.05-4.95s3.09-2.05 4.95-2.05 3.64 0.74 4.95 2.05 2.05 3.09 2.05 4.95-0.74 3.64-2.05 4.95-3.09 2.05-4.95 2.05-3.64-0.74-4.95-2.05-2.05-3.09-2.05-4.95z" fill="#808080" fill-rule="evenodd"/>
  <path d="m2.41 5.816c-0.265 0.677-0.41 1.414-0.41 2.184 0 3.311 2.689 6 6 6s6-2.689 6-6-2.689-6-6-6c-0.613 0-1.205 0.092-1.761 0.264 0.652 0.485 1.075 1.262 1.075 2.136 0 1.467-1.19 2.657-2.657 2.657-0.946 0-1.777-0.495-2.247-1.241z" fill="#808080"/>
 </g>
</svg>

<svg xmlns="http://www.w3.org/2000/svg" style="isolation:isolate" width="16" height="16" viewBox="0 0 16 16">
 <defs>
  <clipPath id="_clipPath_uitRY6gLjlnyCLSXvH1r7Esqm1q0MWUr">
   <rect width="16" height="16"/>
  </clipPath>
 </defs>
 <g clip-path="url(#_clipPath_uitRY6gLjlnyCLSXvH1r7Esqm1q0MWUr)">
  <rect style="fill:rgb(0,0,0)" fill-opacity="0" width="16" height="16"/>
  <path fill="#808080" fill-rule="evenodd" d="M 0 8 C 0 3.585 3.585 0 8 0 C 12.415 0 16 3.585 16 8 C 16 12.415 12.415 16 8 16 C 3.585 16 0 12.415 0 8 Z M 1 8 C 1 6.14 1.74 4.36 3.05 3.05 C 4.36 1.74 6.14 1 8 1 C 9.86 1 11.64 1.74 12.95 3.05 C 14.26 4.36 15 6.14 15 8 C 15 9.86 14.26 11.64 12.95 12.95 C 11.64 14.26 9.86 15 8 15 C 6.14 15 4.36 14.26 3.05 12.95 C 1.74 11.64 1 9.86 1 8 Z"/>
  <path fill="#808080" d="M 2.41 5.816 C 2.145 6.493 2 7.23 2 8 C 2 11.311 4.689 14 8 14 C 11.311 14 14 11.311 14 8 C 14 4.689 11.311 2 8 2 C 7.387 2 6.795 2.092 6.239 2.264 C 6.891 2.749 7.314 3.526 7.314 4.4 C 7.314 5.867 6.124 7.057 4.657 7.057 C 3.711 7.057 2.88 6.562 2.41 5.816 Z"/>
 </g>
</svg>
